X:1
T:When the Goodbyes of Earth Are All Spoken
T:When the Goodbyes of Earth Are All Spoken
T:W. E. Catlin
T:W. E. Catlin, 1898
T:Public Domain Courtesy of the Cyber Hymnal™
T:Public Domain Courtesy of the Cyber Hymnal™
C:W. E. Catlin
Z:Public Domain
Z:Courtesy of the Cyber Hymnal™
%%score ( 1 2 ) ( 3 4 )
L:1/8
Q:1/4=85
M:6/8
K:Eb
V:1 treble 
V:2 treble 
V:3 bass 
V:4 bass 
V:1
 [EG]/[EG]/ | [DF][DF][DF] [DF]2 [EG]/[DF]/ | E[B,E][B,E] [B,E]2 [EG]/[EG]/ | %3
w: 1.~When our|loved ones we greet, In the|homes where we meet, And a|
w: 2.~Like the|last rays of light, All our|joy takes its flight, When with|
w: 3.~To the|friend- less on earth Give some|joy in their dearth, Bid them|
 [DF][DF][DF] [DF]E[DF] | ([E-G]3 [EB]2) [EB]/[EB]/ | [Ec][Ec][Ec] [Ae]2 [Bd]/[Ac]/ | %6
w: fore- taste of Hea- ven en-|joy, * Then the|good- byes of earth Put an|
w: good- byes our loved ones re-|move; * But how|cheer- ing that day In the|
w: share in the plea- sures of|home, * Till they’ve|trea- sures on high, Where we’ll|
 [GB][Ac][GB] [EG]2 [EG]/[EG]/ | [DF][DF][DF] [DF][EG][DF] | E3- E2 ||"^Refrain" E | %10
w: end to our mirth, And our|cir- cle of loved ones de-|stroy. *||
w: near “far a- way,” When the|ran- somed will all meet a-|bove. *|But|
w: meet by and by, In that|last- ing re- un- ion to|come. *||
 [EG][EG][EG] [EG][DF][EG] | [GB]3 [EG]2 [EG]/[EG]/ | [DF][DF][DF] [DF]E[DF] | [EG-]3 [GB]2 [GB] | %14
w: ||||
w: when earth’s good- byes are all|spo- ken, And we’re|ga- thered a- round the white|throne, * Our|
w: ||||
 [Ac][Ac][Ac] [ce][Bd][Ac] | [GB]3 [EG]2 [EG] | [DF]2 [Ac] [GB]<[FA][DF] | E3- E2 |] %18
w: ||||
w: cir- cle will then be un-|bro- ken, For|there no good- byes are|known. *|
w: ||||
V:2
 x | x6 | E x5 | x4 E x | x6 | x6 | x6 | x6 | E3- E2 || E | x6 | x6 | x4 E x | x6 | x6 | x6 | x6 | %17
 E3- E2 |] %18
V:3
 [E,B,]/[E,B,]/ | [B,,B,][B,,B,][B,,B,] [B,,B,]2 [B,,B,]/[B,,A,]/ | %2
w: ||
 [E,G,][E,G,][E,G,] [E,G,]2 [E,B,]/[E,B,]/ | [B,,B,][B,,B,][B,,B,] [B,,B,][C,G,][B,,B,] | %4
w: ||
 ([E,B,]2 [E,B,] [E,G,]2) [E,G,]/[E,G,]/ | A,A,A, [A,C]2 [A,E]/[A,D]/ | %6
w: |But when earth’s * * *|
 [E,E][E,E][E,E] [E,B,]2 [E,B,]/[E,B,]/ | [B,,B,][B,,B,][B,,B,] [B,,B,][B,,B,][B,,B,] | %8
w: ||
 [E,G,]3- [E,G,]2 || [E,G,] | [E,B,][E,B,][E,B,] [E,B,][B,,B,][E,B,] | %11
w: |good-|byes are all spo- ken, all|
 [E,E][E,E][E,E] [E,B,][E,B,][E,B,]/[E,B,]/ | [B,,B,][B,,B,][B,,B,] [B,,B,][C,G,][B,,B,] | %13
w: spo- ken, And we’re ga- thered a-|round the white throne, God’s throne,|
 [E,B,]2 [E,B,] [E,E]2 [E,C] | [A,E][A,E][A,E] [A,E][A,E][A,E] | %15
w: Our cir- cle will|then be un- bro- ken, un-|
 [E,E][E,E][E,E] [E,B,][E,B,][E,B,] | [B,,B,]2 [B,,D] [B,,E]<[B,,B,][B,,A,] | [E,G,]3- [E,G,]2 |] %18
w: broken, * * * * *|||
V:4
 x | x6 | x6 | x6 | x6 | A,A,A, x3 | x6 | x6 | x5 || x | x6 | x6 | x6 | x6 | x6 | x6 | x6 | x5 |] %18

